X: 1
T: Lisagun, The
M: 6/8
L: 1/8
R: jig
K: A Major
AFE ~A3 | Bce c3 | Bce cBA | BAF AFE |
AFE ~A3 | Bce c3 | Bce cBA|1 BAF A3 :|2 BAF ABd ||
|: e2 d cBA | Bce cBA | ece cBA | BAF AFE |
~e3 cBA | Bce cBA | ece cBA | BAF A3 |
~e3 cBA | Bce cBA | ece cBA | BAF AFE |
AFE ~A3 | Bce c3 | Bce cBA | BAF A3 |]  *
*gm gave the B-part as repeating ~ :|
